X:1
T:Holding Hands
M:6/8
L:1/8
C:Ed Wosika (c)2011
R:double jig
K:G
F|:"G"G3 GED| GED D2B| "D7"c2A "Emin"BAG|1 "D7"ABG AGE:|2
 "D7"BAG ABd||:"Amin"e2a "G"ged| BAG "D7"ABd|1 "Amin"e2a "Bmin"ged|
 Bcd "C"e2d:|2"C"cBA "G"BAG| "Amin7"AGD "C"E2F||
